places/24/folder-tar.svg

<svg version="1.1" viewBox="0 0 22 22" xmlns="http://www.w3.org/2000/svg">
 <defs>
  <style type="text/css">.ColorScheme-Text {
        color:#d8dee9;
      }</style>
 </defs>
 <path class="ColorScheme-Text" d="m10 4v1h1v-1zm1 1v1h1v-1zm0 1h-1v1h1zm0 1v1h1v-1zm0 1h-1v1h1zm0 1v1h1v-1zm0 1h-1v1h1zm0 1v1h1v-1zm0 1h-1v2h2v-1h-1z" fill="currentColor"/>
 <path class="ColorScheme-Text" d="m6 3c-1.662 0-3 1.338-3 3v10c0 1.662 1.338 3 3 3h10c1.662 0 3-1.338 3-3v-10c0-1.662-1.338-3-3-3h-10zm0 1h10c1.108 0 2 0.892 2 2v10c0 1.108-0.892 2-2 2h-10c-1.108 0-2-0.892-2-2v-10c0-1.108 0.892-2 2-2z" fill="currentColor"/>
</svg>

<?xml version="1.0" encoding="UTF-8" standalone="no"?>
<svg
   version="1.1"
   viewBox="0 0 22 22"
   id="svg2"
   xmlns="http://www.w3.org/2000/svg"
   xmlns:svg="http://www.w3.org/2000/svg">
  <defs
     id="defs1">
    <style type="text/css" id="current-color-scheme"> .ColorScheme-Text { color:#eff0f1; } </style>
  </defs>
  <path
     id="path1"
     style="fill:currentColor"
     class="ColorScheme-Text"
     d="M 6 3 C 4.3380017 3 3 4.3380017 3 6 L 3 16 C 3 17.661998 4.3380017 19 6 19 L 16 19 C 17.661998 19 19 17.661998 19 16 L 19 6 C 19 4.3380017 17.661998 3 16 3 L 6 3 z M 6 4 L 10 4 L 10 5 L 11 5 L 11 4 L 16 4 C 17.107999 4 18 4.8920011 18 6 L 18 16 C 18 17.107999 17.107999 18 16 18 L 6 18 C 4.8920011 18 4 17.107999 4 16 L 4 6 C 4 4.8920011 4.8920011 4 6 4 z M 11 5 L 11 6 L 12 6 L 12 5 L 11 5 z M 11 6 L 10 6 L 10 7 L 11 7 L 11 6 z M 11 7 L 11 8 L 12 8 L 12 7 L 11 7 z M 11 8 L 10 8 L 10 9 L 11 9 L 11 8 z M 11 9 L 11 10 L 12 10 L 12 9 L 11 9 z M 11 10 L 10 10 L 10 11 L 11 11 L 11 10 z M 11 11 L 11 12 L 12 12 L 12 11 L 11 11 z M 11 12 L 10 12 L 10 14 L 12 14 L 12 13 L 11 13 L 11 12 z " />
</svg>
